X:1
T:A Meteor Bright Its Wondrous Light
T:A Meteor Bright Its Wondrous Light
T:Edwin Henry Lemare
T:Anonymous, 1916
T:Public Domain Courtesy of the Cyber Hymnal™
T:Public Domain Courtesy of the Cyber Hymnal™
C:Edwin Henry Lemare
Z:Public Domain
Z:Courtesy of the Cyber Hymnal™
%%score ( 1 2 ) ( 3 4 )
L:1/8
Q:1/4=105
M:6/8
K:G
V:1 treble 
V:2 treble 
V:3 bass 
V:4 bass 
V:1
 [GB] | Bc[Gd] [Ge]2 [Gd] | [FB]2 [FA] G2 [DG] | [EA]2 [EA] (AB)[Dc] | [DB]3- [DB]2 [GB] | %5
w: 1.~A|me- te- or bright its|won- drous light O’er|Beth- lem’s ci- * ty|shed, * To|
w: 2.~The|wi- se men came to|bless His Name And|own the Sav- * ior|King, * And|
w: 3.~But|heav- en- ly choirs at-|tuned their lyres To|hail a prin- * ce’s|birth, * And|
 (Bc)[Gd] [Ge]2 [Gd] | [FB]2 [FA] G2 [DG] | (AB)[Ec] [DB]2 [CA] | [B,G]3- [B,G]2 [DA] | %9
w: lead * the way where|Je- sus lay, Up-|on * His lone- ly|bed. * No|
w: shep- * herd swains from|far- off plains Their|hearts’ * glad in- cense|bring. * So|
w: raptur- * ous song from|an- gel throng Greet-|ed * the ear of|earth. * The|
 (AB)[Dc] [DB]2 G | [Gd]2 [FA] [GB]2 [=FG] | ([Ee][Gd])[GB] (AG)[^CE] | [DA]3- [DA]2 D | %13
w: no- * bles wait, no|pomp or state Sur-|rounds * the Babe * di-|vine, * But|
w: low- * ly born, He|was the scorn Of|na- * tions, kings * and|priests; * No|
w: star * is gone— the|song flows on To|her- * ald bright- * er|days; * And|
 ([DB][Gc])[Gd] [Ge]2 [Gd] | [FB]2 [FA] G2 [DG] | (AB)[Ec] [DB]2 [CA] | [B,G]3- [B,G]2 |] %17
w: o’er * His head bright|cir- cles spread, In|gold- * en glo- ries|shine. *|
w: bel- * fry chime that|Christ- mas- time Rang|at * their lord- ly|feasts. *|
w: truth’s * pure beams in|glow- ing streams Make|clear * life’s dark- ened|ways. *|
V:2
 x | G2 x4 | x3 G2 x | x3 D2 x | x6 | G2 x4 | x3 G2 x | E2 x4 | x6 | D2 x2 G x | x6 | x3 D2 x | %12
 x5 D | x6 | x3 G2 x | E2 x4 | x5 |] %17
V:3
 [G,D] | D2 [B,D] C2 [B,D] | [D,D]2 [D,C] [E,B,]2 [B,,G,] | [C,G,]2 [A,,G,] [D,F,]2 [D,F,] | %4
 [G,,G,]3- [G,,G,]2 G, | D2 [B,D] C2 [B,D] | [D,D]2 [D,C] [E,B,]2 [B,,G,] | %7
 [C,G,]2 [A,,G,] (G,E,)[D,F,] | [G,,G,]3- [G,,G,]2 [D,F,] | (F,G,)[D,A,] G,2 [G,B,] | %10
 (A,B,)[D,C] [G,B,]2 [B,D] | (C[B,D])[G,D] ([F,A,][E,B,])[E,G,] | [D,F,]3- [D,F,]2 [F,C] | %13
 ([G,B,] A,)[G,B,] [C,C]2 [B,,D] | [D,D]2 [^D,C] [E,B,]2 [B,,G,] | [C,G,]2 [A,,G,] (G,E,)[D,F,] | %16
 [G,,D,G,]3- [G,,D,G,]2 |] %17
V:4
 x | G,A, C2 x2 | x6 | x6 | x5 G, | (G,A,) C2 x2 | x6 | x3 D,2 x | x6 | D,2 G,2 x2 | D,2 x4 | x6 | %12
 x6 | x A, x4 | x6 | x3 D,2 x | x5 |] %17

